X:1
T:Title
%%score 1 2
L:1/8
Q:1/4=130
M:4/4
K:Ab
V:1 treble nm="Choir Aahs, Unnamed-000"
V:2 bass nm="Choir Aahs, Swing Outward Never"
V:1
 [CE]>[CE] [CA]2 [DA]2 [CA]2 | [CA]>[DB] [Ec]2 [Ec]2 [Ec]2 | %2
w: By~Charles~Hutchinson~Gabriel,~circa~1917 * * * *||
 [Ec]>[=EB] [FA]2- [FA]/ z/ [FB] [FA]2 | [DF]2 [DF]2 [CE]4 | [CA]>[EA] [EG]2 [DB]2 [DB]2 | %5
w: |||
 [DB]>[DB] [CA]2 [Ec]2 [Ec]2 | [Ec]>[Ec] [EB]2 [EB]2 [=Dc]2 | [A=d]2 [Ge]4 [Ge]2 | %8
w: |||
 [Ge]>[Fd] [Ec]2 [Ec]2 [Ec]2 | [Ec]>[=EB] [FA]2 [FA]2 [FA]2 | [EG]>[DF] [CE]2 [CE]2 [EA]2 | %11
w: |||
 [Ec]2 [Ec]2 [EB]4 | [Ge]>[Fd] [Ec]2 [Ec]2 [Ec]2 | [Ec]>[=EB] [FA]2 [FA]2 [FA]2 | %14
w: |||
 [EG]>[DF] [CE]2 [CE]2 [EA]2 | [Ec]2 [DB]4 [CA]2 |] %16
w: ||
V:2
 [A,,A,]>[A,,A,] [A,,E,]2 [A,,F,]2 [A,,E,]2 | [A,,E,]>[A,,E,] [A,,A,]2 [A,,A,]2 [A,,A,]2 | %2
 [A,,A,]>[C,A,] [D,D]2- [D,D]/ z/ [B,,D] [D,D]2 | [D,A,]2 [A,,A,]2 [A,,A,]4 | %4
 [A,,A,]>[C,A,] [E,B,]2 [E,G,]2 [E,G,]2 | [E,G,]>[E,G,] A,2 A,2 A,2 | %6
 [A,,A,]>[A,,A,] [B,,G,]2 [B,,G,]2 [B,,F,]2 | [B,,B,]2 [E,B,]4 [E,B,]2 | %8
 [E,B,]>[E,G,] [A,,A,]2 [A,,A,]2 [A,,A,]2 | [A,,A,]>[A,,A,] [D,D]2 [D,D]2 [D,D]2 | %10
 [D,D]>[D,A,] [A,,A,]2 [A,,A,]2 [C,A,]2 | [A,,A,]2 [E,A,]2 [E,G,]4 | %12
 [E,B,]>[E,G,] [A,,A,]2 [A,,A,]2 [A,,A,]2 | [A,,A,]>[C,A,] [D,D]2 [D,D]2 [D,D]2 | %14
 [D,D]>[D,A,] [E,A,]2 [E,A,]2 [E,C]2 | [E,A,]2 [E,G,]4 [A,,E,A,]2 |] %16

